kwork_juristConsalt/img/svg/whatsappIcon.svg

<svg width="36" height="36" viewBox="0 0 36 36" fill="none" xmlns="http://www.w3.org/2000/svg">
<path d="M26.244 21.5741C25.7929 21.3458 23.5957 20.2736 23.1851 20.1206C22.7745 19.9744 22.4764 19.8979 22.1771 20.349C21.8846 20.7889 21.0229 21.7957 20.7596 22.0894C20.4964 22.383 20.2376 22.4055 19.7932 22.2064C19.3421 21.978 17.901 21.5089 16.1899 19.9744C14.8534 18.7852 13.9635 17.3205 13.6991 16.8694C13.4359 16.4239 13.6699 16.1719 13.8926 15.9491C14.0974 15.7444 14.3438 15.4339 14.5721 15.1639C14.7893 14.8939 14.859 14.7127 15.0176 14.4202C15.1639 14.1041 15.0885 13.8577 14.9771 13.635C14.8657 13.4122 13.9691 11.2039 13.5945 10.3241C13.2367 9.45113 12.8621 9.5625 12.5865 9.5625C12.3289 9.53887 12.0296 9.53888 11.7315 9.53888C11.4334 9.53888 10.9462 9.65025 10.5356 10.0778C10.125 10.5289 8.96513 11.6066 8.96513 13.7869C8.96513 15.9727 10.5705 18.0877 10.7933 18.4039C11.0216 18.6964 13.9511 23.1964 18.4455 25.1302C19.5176 25.5814 20.3501 25.8514 21.0004 26.0741C22.0725 26.4139 23.0513 26.3666 23.8241 26.2552C24.6791 26.1146 26.4724 25.1707 26.8481 24.1166C27.2295 23.0557 27.2295 22.1771 27.1181 21.978C27.0068 21.7732 26.7142 21.6619 26.2631 21.4627L26.244 21.5741ZM18.0934 32.625H18.0697C15.4091 32.625 12.7789 31.9039 10.4816 30.5561L9.94275 30.2344L4.31775 31.6991L5.82975 26.226L5.46638 25.6635C3.98077 23.3014 3.19264 20.5677 3.19275 17.7773C3.19275 9.60975 9.87863 2.9475 18.1046 2.9475C22.0894 2.9475 25.8278 4.5 28.6403 7.3125C30.0277 8.68342 31.1282 10.3169 31.8776 12.1177C32.6271 13.9184 33.0104 15.8504 33.0052 17.8009C32.994 25.9627 26.3137 32.625 18.099 32.625H18.0934ZM30.7789 5.17387C27.3566 1.86863 22.8566 0 18.0697 0C8.19675 0 0.1575 8.00437 0.151875 17.8414C0.151875 20.9824 0.972 24.0469 2.5425 26.7592L0 36L9.504 33.5216C12.1368 34.9411 15.0798 35.6878 18.0709 35.6951H18.0765C27.9551 35.6951 35.9944 27.6908 36 17.847C36 13.0837 34.1426 8.60063 30.7564 5.23125L30.7789 5.17387Z" fill="#27B847"/>
</svg>

<svg width="36" height="36" fill="none" xmlns="http://www.w3.org/2000/svg"><path d="M26.244 21.574c-.451-.228-2.648-1.3-3.059-1.453-.41-.147-.709-.223-1.008.228-.292.44-1.154 1.447-1.417 1.74-.264.294-.522.317-.967.117-.45-.228-1.892-.697-3.603-2.232-1.337-1.189-2.227-2.654-2.49-3.105-.264-.445-.03-.697.193-.92.204-.205.45-.515.68-.785.216-.27.286-.451.445-.744.146-.316.07-.562-.04-.785-.112-.223-1.009-2.431-1.383-3.31-.358-.874-.733-.762-1.009-.762-.257-.024-.556-.024-.854-.024a1.69 1.69 0 00-1.196.539c-.411.45-1.57 1.529-1.57 3.709 0 2.186 1.604 4.3 1.827 4.617.229.292 3.158 4.792 7.652 6.726 1.073.451 1.905.721 2.555.944 1.073.34 2.051.293 2.824.181.855-.14 2.648-1.084 3.024-2.138.382-1.061.382-1.94.27-2.139-.111-.205-.404-.316-.855-.515l-.019.111zm-8.15 11.051h-.024c-2.66 0-5.291-.721-7.588-2.069l-.54-.322L4.319 31.7l1.512-5.473-.364-.563a14.812 14.812 0 01-2.273-7.886c0-8.167 6.686-14.83 14.912-14.83a14.8 14.8 0 0110.535 4.365 14.69 14.69 0 014.365 10.489c-.011 8.162-6.691 14.824-14.906 14.824h-.006zM30.778 5.174C27.357 1.869 22.857 0 18.069 0 8.198 0 .158 8.004.153 17.841c0 3.141.82 6.206 2.39 8.918L0 36l9.504-2.478a18.145 18.145 0 008.567 2.173h.005c9.88 0 17.918-8.004 17.924-17.848 0-4.763-1.857-9.246-5.244-12.616l.023-.057z" fill="#27B847"/></svg>
